icons/market_stall.svg

<svg width="48" height="48" viewBox="0 0 48 48" fill="none" xmlns="http://www.w3.org/2000/svg">
<path d="M22.5 28C21.6716 28 21 27.3284 21 26.5C21 25.6716 21.6716 25 22.5 25C23.3284 25 24 25.6716 24 26.5C24 27.3284 23.3284 28 22.5 28Z" fill="black"/>
<path fill-rule="evenodd" clip-rule="evenodd" d="M9.42857 20C9.62339 20 9.81428 19.9837 10 19.9524V28H7.5C7.22386 28 7 28.2239 7 28.5V29.5C7 29.7761 7.22386 30 7.5 30H40.5C40.7761 30 41 29.7761 41 29.5V28.5C41 28.2239 40.7761 28 40.5 28H38V19.9524C38.1857 19.9837 38.3766 20 38.5714 20C40.4728 20 42 18.4479 42 16.551V14.1609C42 13.8438 41.9447 13.529 41.8366 13.2308L39.6564 7.2216C39.3917 6.4921 38.6999 6 37.9181 6H10.0819C9.30012 6 8.60829 6.4921 8.34363 7.22159L6.16345 13.2308C6.05528 13.529 6 13.8438 6 14.1609V16.551C6 18.4479 7.52715 20 9.42857 20ZM8.04354 13.9129L10.1888 8H37.8112L39.9565 13.9129C39.9852 13.9922 40 14.0761 40 14.1609V16.551C40 17.3592 39.3525 18 38.5714 18C37.7903 18 37.1429 17.3592 37.1429 16.551C37.1429 15.9987 36.6951 15.551 36.1429 15.551C35.5906 15.551 35.1429 15.9987 35.1429 16.551C35.1429 17.3592 34.4954 18 33.7143 18C32.9336 18 32.2864 17.3598 32.2857 16.5522C32.2853 16.0003 31.8377 15.553 31.2857 15.553C30.7337 15.553 30.2862 16.0003 30.2857 16.5522C30.2851 17.3598 29.6379 18 28.8571 18C28.076 18 27.4286 17.3592 27.4286 16.551C27.4286 15.9987 26.9809 15.551 26.4286 15.551C25.8763 15.551 25.4286 15.9987 25.4286 16.551C25.4286 17.3592 24.7811 18 24 18C23.2193 18 22.5721 17.3598 22.5714 16.5522C22.571 16.0003 22.1234 15.553 21.5714 15.553C21.0195 15.553 20.5719 16.0003 20.5714 16.5522C20.5708 17.3598 19.9236 18 19.1429 18C18.3618 18 17.7143 17.3592 17.7143 16.551C17.7143 15.9987 17.2666 15.551 16.7143 15.551C16.162 15.551 15.7143 15.9987 15.7143 16.551C15.7143 17.3592 15.0668 18 14.2857 18C13.5046 18 12.8571 17.3592 12.8571 16.551C12.8571 15.9987 12.4094 15.551 11.8571 15.551C11.3049 15.551 10.8571 15.9987 10.8571 16.551C10.8571 17.3592 10.2097 18 9.42857 18C8.64747 18 8 17.3592 8 16.551V14.1609C8 14.0761 8.01478 13.9922 8.04354 13.9129ZM36 19.1219C35.3946 19.6674 34.5945 20 33.7143 20C32.7629 20 31.9053 19.6115 31.2857 18.9856C30.6662 19.6115 29.8085 20 28.8571 20C27.9058 20 27.0481 19.6115 26.4286 18.9856C25.809 19.6115 24.9514 20 24 20C23.0486 20 22.191 19.6115 21.5714 18.9856C20.9519 19.6115 20.0942 20 19.1429 20C18.1915 20 17.3338 19.6115 16.7143 18.9856C16.0947 19.6115 15.2371 20 14.2857 20C13.4055 20 12.6054 19.6674 12 19.1219V28H14.5C14.2239 28 14 27.7761 14 27.5V25.5C14 25.2239 14.2239 25 14.5 25H17.5C17.7761 25 18 25.2239 18 25.5V26H19.5C19.7761 26 20 26.2239 20 26.5V27.5C20 27.7761 19.7761 28 19.5 28H22.5H36V19.1219Z" fill="black"/>
<path fill-rule="evenodd" clip-rule="evenodd" d="M8 33C8 32.4477 8.44772 32 9 32H39C39.5523 32 40 32.4477 40 33V41C40 41.5523 39.5523 42 39 42H9C8.44772 42 8 41.5523 8 41V33ZM10 40V34H38V40H10Z" fill="black"/>
</svg>

<svg
  xmlns="http://www.w3.org/2000/svg"
  width="24"
  height="24"
  viewBox="0 0 24 24"
  fill="none"
  stroke="currentColor"
  stroke-width="2"
  stroke-linecap="round"
  stroke-linejoin="round"
>
  <path d="M22.5 28a1.5 1.5 0 1 1 0-3 1.5 1.5 0 0 1 0 3" />
  <path
    fill-rule="evenodd"
    d="M9.429 20q.292 0 .571-.048V28H7.5a.5.5 0 0 0-.5.5v1a.5.5 0 0 0 .5.5h33a.5.5 0 0 0 .5-.5v-1a.5.5 0 0 0-.5-.5H38v-8.048q.28.048.571.048C40.473 20 42 18.448 42 16.551v-2.39a2.7 2.7 0 0 0-.163-.93l-2.18-6.01A1.85 1.85 0 0 0 37.917 6H10.082a1.85 1.85 0 0 0-1.738 1.222l-2.18 6.009a2.7 2.7 0 0 0-.164.93v2.39C6 18.448 7.527 20 9.429 20m-1.385-6.087L10.189 8H37.81l2.145 5.913q.044.12.044.248v2.39c0 .808-.648 1.449-1.429 1.449-.78 0-1.428-.64-1.428-1.449a1 1 0 0 0-2 0c0 .808-.648 1.449-1.429 1.449-.78 0-1.428-.64-1.428-1.448a1 1 0 0 0-2 0c0 .808-.648 1.448-1.429 1.448s-1.428-.64-1.428-1.449a1 1 0 1 0-2 0C25.429 17.359 24.78 18 24 18c-.78 0-1.428-.64-1.429-1.448a1 1 0 0 0-2 0c0 .808-.647 1.448-1.428 1.448s-1.429-.64-1.429-1.449a1 1 0 1 0-2 0c0 .808-.647 1.449-1.428 1.449s-1.429-.64-1.429-1.449a1 1 0 1 0-2 0c0 .808-.647 1.449-1.428 1.449C8.647 18 8 17.36 8 16.551v-2.39q0-.129.044-.248M36 19.122a3.4 3.4 0 0 1-2.286.878 3.4 3.4 0 0 1-2.428-1.014A3.4 3.4 0 0 1 28.857 20a3.4 3.4 0 0 1-2.428-1.014A3.4 3.4 0 0 1 24 20a3.4 3.4 0 0 1-2.429-1.014A3.4 3.4 0 0 1 19.143 20c-.951 0-1.81-.389-2.429-1.014A3.4 3.4 0 0 1 14.286 20c-.88 0-1.68-.333-2.286-.878V28h2.5a.5.5 0 0 1-.5-.5v-2a.5.5 0 0 1 .5-.5h3a.5.5 0 0 1 .5.5v.5h1.5a.5.5 0 0 1 .5.5v1a.5.5 0 0 1-.5.5H36z"
    clip-rule="evenodd"
  />
  <path
    fill-rule="evenodd"
    d="M8 33a1 1 0 0 1 1-1h30a1 1 0 0 1 1 1v8a1 1 0 0 1-1 1H9a1 1 0 0 1-1-1zm2 7v-6h28v6z"
    clip-rule="evenodd"
  />
</svg>
